img/inst-g.svg

<svg width="18" height="18" viewBox="0 0 18 18" fill="none" xmlns="http://www.w3.org/2000/svg">
<path d="M12.3787 0H5.62126C2.51163 0 0 2.51163 0 5.62126V12.3787C0 15.4884 2.51163 18 5.62126 18H12.3787C15.4884 18 18 15.4884 18 12.3787V5.62126C18 2.51163 15.4884 0 12.3787 0ZM16.3056 12.3787C16.3056 14.5515 14.5316 16.3056 12.3787 16.3056H5.62126C3.44851 16.3056 1.69435 14.5316 1.69435 12.3787V5.62126C1.69435 3.44851 3.46844 1.69435 5.62126 1.69435H12.3787C14.5515 1.69435 16.3056 3.46844 16.3056 5.62126V12.3787Z" fill="black" fill-opacity="0.5"/>
<path d="M8.99003 4.50488C6.49833 4.50488 4.48505 6.51817 4.48505 9.00987C4.48505 11.5016 6.49833 13.5149 8.99003 13.5149C11.4817 13.5149 13.495 11.5016 13.495 9.00987C13.495 6.51817 11.4817 4.50488 8.99003 4.50488ZM8.99003 11.8006C7.43521 11.8006 6.1794 10.5448 6.1794 8.98993C6.1794 7.43512 7.43521 6.1793 8.99003 6.1793C10.5448 6.1793 11.8007 7.43512 11.8007 8.98993C11.8206 10.5448 10.5448 11.8006 8.99003 11.8006Z" fill="black" fill-opacity="0.5"/>
<path d="M13.8338 4.76413C14.1641 4.76413 14.4319 4.49639 14.4319 4.16612C14.4319 3.83585 14.1641 3.56812 13.8338 3.56812C13.5036 3.56812 13.2358 3.83585 13.2358 4.16612C13.2358 4.49639 13.5036 4.76413 13.8338 4.76413Z" fill="black" fill-opacity="0.5"/>
</svg>

<svg width="18" height="18" viewBox="0 0 18 18" fill="none" xmlns="http://www.w3.org/2000/svg"><path d="M12.379 0H5.62A5.615 5.615 0 000 5.621v6.758A5.615 5.615 0 005.621 18h6.758A5.615 5.615 0 0018 12.379V5.62A5.615 5.615 0 0012.379 0zm3.927 12.379a3.934 3.934 0 01-3.927 3.927H5.62a3.935 3.935 0 01-3.927-3.927V5.62A3.935 3.935 0 015.62 1.693h6.758a3.935 3.935 0 013.927 3.927v6.758z" fill="#000" fill-opacity=".5"/><path d="M8.99 4.505A4.5 4.5 0 004.485 9.01a4.5 4.5 0 004.505 4.505 4.5 4.5 0 004.505-4.505A4.5 4.5 0 008.99 4.505zm0 7.296A2.807 2.807 0 016.18 8.99a2.807 2.807 0 012.81-2.81 2.807 2.807 0 012.81 2.81c.02 1.555-1.255 2.81-2.81 2.81zm4.844-7.037a.598.598 0 100-1.196.598.598 0 000 1.196z" fill="#000" fill-opacity=".5"/></svg>
